X:625
T: Park on Sunday (The)
C: BB
R: jig
Q: 1/8=320
M: 6/8
L: 1/8
K: D
A | "D"dcd AFD | "A"EDC "D"DEF | "G"GAB "A"ABc | "D"dAF "A"E2 A |
"D"dcd "Em"efg | "D"fed "G"Bcd | "D"AFD "G"GAB | "A"AFE "D"D2 :|
e | "D"agf "A7"gec | "D"dcd "Bm"BAF | "G"GAB "A"ABc | "D"def "A"e2 f |
"D"afd "A"ecA | "G"BGB "A"ABc | "D"dAF "G"GAB |"A"AFE "D"D2 :|
%%%%%%%%%%%%%%%%%%%%%%%%%%%%%%%%%%%%%%%%%%%
